X:2
T:The Bloom of Youth
M:4/4
L:1/8
Q:150
B:110 Irish Fiddle Tunes vol. 2
R:Reel
N:Collected by: Sinad Madden
N:Published by: Waltons
K:G
G2 DG EGDF | G2 BG AGEF | G2 DG EGBc | dBcA BGAF |
G2 DG EGDF | G2 BG AGEF | G2 DG EGBc | dBAc BG G2 :|
|:gd (3ddd edcA | BdAc BE (3EEE | gd (3ddd edcA | dcAc BG G2 |
gd (3ddd edcA | BdAc BE E2 | cBcd efge | dBAc BG G2:|
